!!!OTL: "Der geschlagene Mann" S BEDLWAIBL WOLLT KIARISIARTN GEHN
!!!ARE: Europa, Mitteleuropa, Oesterreich
!!!SCT: Z1338
!!!YEM: Copyright 1995, estate of Helmut Schaffrath.
**kern
*ICvox
*Ivox
*M3/8
*k[b-]
*F:
{16f
16f
16f
16f
8f
=1
16e
16e
16g
16e
8c}
=2
{8f
8a
16cc
16ff
=3
4cc
8r}
=4
{16b-
16b-
16dd
16dd
8b-
=5
8a
8cc
8f}
=6
{8e
16g
16g
8c
=7
8f
8a
8c}
=8
{8e
16e
16dd
16cc
16e
=9
4f
8r}
==
!!!AGN: Zech -, Schalks - Lied
!!!ONB: ESAC (Essen Associative Code) Database: ZUCCAL
!!!AMT: simple triple
!!!AIN: vox
!!!EED: Helmut Schaffrath
!!!EEV: 1.0
*-
